svg/Outline/arrow-down.svg

<svg viewBox="0 0 24 24" xmlns="http://www.w3.org/2000/svg" width="24" height="24"><path d="M12 5a.9.9 0 0 1 .9.8v10.53l4.18-4.18.07-.06a.9.9 0 0 1 1.27 1.26l-.06.07-4.6 4.59q-.27.3-.52.5-.25.24-.65.39-.59.18-1.18 0l-.19-.08a2 2 0 0 1-.46-.3l-.53-.51-4.59-4.59-.06-.07a.9.9 0 0 1 1.34-1.2l4.18 4.18V5.8A.9.9 0 0 1 12 5"/></svg>

<svg viewBox="0 0 24 24" xmlns="http://www.w3.org/2000/svg" width="24" height="24"><path d="M12 5A.9 .9 0 0 1 12.9 5.8L12.9 16.33L17.15 12.09A.9 .9 0 0 1 18.42 13.35L13.76 18.01Q13.49 18.31 13.24 18.51Q12.99 18.75 12.59 18.9Q12 19.08 11.41 18.9L11.22 18.82A2 2 0 0 1 10.76 18.52L5.58 13.35A.9 .9 0 0 1 6.92 12.15L11.1 16.33L11.1 5.8A.9 .9 0 0 1 12 5"/></svg>
